X:1
T:Polska efter Bruun
R:Polska
Z:Jonas Brunskog, 1/7 2008
O:Srslv, Skne
S:efter Johan Jacob Bruun
B:Bruunboken
N:Bruunboken 44, samt Omtyckta Sknska Allspelsltar
M:3/4
L:1/8
K:Dm
|:fe (3d^cd A2|^c>d (3efg a2|abageg|fe (3d^cd A2|
fe (3d^cd A2|^c>d (3efg a2|abageg|gf d2 d2:|
|: a2 fafa|agegeg|fedefg|a^cdefg|
a2 fafa|agegeg|fedefg|a^c d2 d2:|
